X:1
T:Per un morso tant'ita?
T:Domenico Obizzi
T:Madrigal
T:Source : Madrigali et arie a voce sola---Libro I ---Venetia---A.Vincenti---1627. Editor : André Vierendeels (23/02/16).
T:Notes : Original clefs : C1, F4 Editorial accidentals above the staff Figures above the BC are notated in original print This madrigal is the "risposta" on the madrigal "Ah Clori, ah rabiosetta"(same composer)
T:Per un morso tant'ita?
T:©
T:©
T:©
T:©
T:©
C:Domenico Obizzi
Z:©
%%score 1 2
L:1/8
Q:1/4=120
M:4/4
K:C
V:1 treble nm="Soprano" snm="S"
V:2 bass nm="BC" snm="BC"
V:1
 z2 AA A2 A^G | A2 A2 c2 A^G | A3 B ^G2 G2 | A3 ^G B4 | B2 B2 e2 B2 | c3 B dccB | B4 A4 | %7
w: Per un mor- so tant'|i- ta? Scu- sa Fi-|le- no mio la|boc- ca'in- gor-|da, s'a- vien tal'|hor che nel ba- ciar ti|mor- da,|
 cA e2 edde | c3 B B2 A2 | B4 B2 G2 | A2 B2 c3 B | dccB B4 | A4 z2 AA | %13
w: scu- sa, scu- sa Fi- le- no|mio la boc- ca'in-|gor- da, s'a-|vien tal hor che|nel ba- ciar ti mor-|da, il fo-|
 AG/A/ FG/A/ DE/F/ G/A/B/c/ | d2 d^c dd d2 | AGAB c2 e2- | e2 dc B4 | AEAE ^FG/A/ FG/A/ | %18
w: co- * * * * * * * * * * * *|* so de- si- o, c'ho|di ba- ciar- ti'à pien quan-|* do ti ba-|cio, tra- mu- ta'in mor- * * * * *|
 GA/B/ cB A4 | GDGD EF/G/ EF/G/ | ^FFAB c2 BA | BB e2 ABcB | d2 d4 cB | A4 ADGD | %24
w: * * * * so'il ba-|cio, tra- mu- ta'in mor- * * * * *|* so il fo- co- so de-|si- o, c'ho di ba- cia- ti'à|pien quan- do ti|ba- cio, tra- mu- ta'in|
 E^F/G/ EF/G/ FG/A/ FG/A/ | ^GA/B/ GA/B/ AB/c/ dc | B4 A4 | A4 A^FGA | B4 dBcd | e2 e4 dc | d4 d4 | %31
w: mor- * * * * * * * * * * *|* * * * * * * * * * so'il|ba- cio,|ma se ven- det- ta|pur, se ven- det- ta|pur fa- me tu|vuo- i,|
 d2 dA B2 c/B/A/G/ | A2 G3 E A2- | A^F B4 cd | A4 G4 | GEFG A2 A2- | A2 GA D4 | C4 G2 GG | %38
w: ec- co la boc- ca'e _ _ _|tua mor- di, mor-|* di, mor- di che|puo- i,|se ven- det- ta pur fa-|* me tu vuo-|i, ec- co la|
 c2 B/c/d/^G/ A2 d2- | d2 cd B4 | A4 z A/G/ A/E/A/G/ | ^FD/E/ F/G/A/F/ ^GA/B/ c/d/e/d/ | %42
w: boc- ca'e _ _ _ tua mor-|* di che puo-|i, mor- * * * * *||
 cA/B/ c/d/e/c/ de f/e/d/c/ | Bcdc B4 | A8 |] %45
w: |* * di che puo-|i.|
V:2
 A,,4 B,,4 | A,,8 | A,,4 E,4 | F,4 E,4 | E,4 ^G,4 | A,2 F,2 D,4 | E,4 A,,4 | A,4 ^G,4 | %8
 A,2 E,2 F,4 | E,4 E,4 | ^F,2 ^G,2 A,4 | D,4 E,4 | A,,4 D,4 | D,8 | D,8 | D,4 A,,3 B,, | %16
 C,2 D,2 E,4 | A,,4 D,4 | E,2 C,2 D,4 | G,,4 C,4 | D,4 A,,4 | E,4 F,2 A,2 | G,4 B,,2 C,2 | %23
 D,4 D,2 B,,2 | C,4 D,4 | E,4 F,2 D,2 | E,4 A,,4 | D,4 D,2 C,2 | B,,3 A,, G,,4 | C,3 D, E,2 A,2 | %30
 G,4 G,,4 | G,2 ^F,2 G,2 E,2 | D,2 B,,2 C,3 A,, | D,3 B,, E,2 C,2 | D,4 G,,4 | C,4 F,,3 G,, | %36
 A,,2 E,,F,, G,,4 | C,4 C,3 B,, | A,,2 E,2 F,2 D,2 |"^#" E,4 E,,4 | A,,4 A,,4 | D,4 E,4 | F,4 D,4 | %43
 E,2 D,2 E,4 | A,,8 |] %45

